src/platform/plugins/shared/custom_integrations/public/assets/language_clients/php.svg

<svg width="128" height="128" viewBox="0 0 128 128" fill="none" xmlns="http://www.w3.org/2000/svg">
<path d="M1.7998 63.7198C1.7998 81.7902 29.6484 96.4395 63.9999 96.4395C98.3515 96.4395 126.2 81.7902 126.2 63.7198C126.2 45.6497 98.3515 31.0002 63.9999 31.0002C29.6484 31.0002 1.7998 45.6497 1.7998 63.7198Z" fill="url(#paint0_radial)"/>
<path d="M63.9999 94.0098C97.0098 94.0098 123.77 80.4483 123.77 63.7194C123.77 46.9907 97.0098 33.429 63.9999 33.429C30.9901 33.429 4.22949 46.9907 4.22949 63.7194C4.22949 80.4483 30.9901 94.0098 63.9999 94.0098Z" fill="#777BB3"/>
<path d="M35.5936 67.475C38.3078 67.475 40.3342 66.9744 41.6163 65.9877C42.8847 65.0111 43.7607 63.3191 44.2199 60.9589C44.648 58.7528 44.4849 57.2124 43.7353 56.3812C42.9688 55.5321 41.3117 55.1015 38.81 55.1015H34.4723L32.0676 67.475H35.5936ZM21.4062 82.7168C21.2048 82.7168 21.0136 82.6268 20.8856 82.4711C20.7574 82.3157 20.7054 82.1109 20.7439 81.9132L27.1169 49.1234C27.1785 48.8064 27.4563 48.5774 27.7794 48.5774H41.5148C45.8316 48.5774 49.0446 49.7495 51.0642 52.0615C53.0945 54.3857 53.7215 57.6345 52.9276 61.7175C52.6045 63.3809 52.0489 64.9258 51.2761 66.3089C50.5024 67.6936 49.4799 68.9749 48.2365 70.1177C46.7481 71.5107 45.0635 72.5209 43.234 73.1152C41.4336 73.7017 39.1213 73.9991 36.3616 73.9991H30.7999L29.2116 82.1706C29.1499 82.4878 28.8723 82.7168 28.5492 82.7168H21.4062Z" fill="black"/>
<path d="M35.0288 55.7764H38.8101C41.8295 55.7764 42.8783 56.4389 43.2346 56.8337C43.8259 57.4893 43.9375 58.8715 43.5575 60.8308C43.1305 63.0243 42.339 64.5795 41.2047 65.4528C40.0434 66.3469 38.1555 66.8 35.5937 66.8H32.8864L35.0288 55.7764ZM41.515 47.9024H27.7793C27.1332 47.9024 26.5777 48.3604 26.4545 48.9946L20.0815 81.7844C20.0045 82.1801 20.1085 82.5894 20.3647 82.9005C20.6212 83.2116 21.0032 83.3916 21.4063 83.3916H28.5492C29.1955 83.3916 29.751 82.9336 29.8743 82.2994L31.3564 74.674H36.3618C39.1924 74.674 41.5753 74.3653 43.4436 73.7567C45.3651 73.1325 47.133 72.074 48.6976 70.6107C49.9917 69.4202 51.0576 68.0839 51.8652 66.6384C52.6731 65.1925 53.2535 63.5802 53.5903 61.8461C54.4261 57.5482 53.7471 54.1066 51.5725 51.6175C49.4191 49.1523 46.0351 47.9024 41.515 47.9024ZM31.2488 68.1498H35.5937C38.4736 68.1498 40.6187 67.6074 42.0281 66.5223C43.4378 65.4371 44.3885 63.6258 44.8826 61.0877C45.3552 58.6508 45.1399 56.9311 44.2367 55.9293C43.3323 54.9275 41.5237 54.4265 38.8101 54.4265H33.9161L31.2488 68.1498ZM41.515 49.2522C45.647 49.2522 48.6614 50.3365 50.5561 52.5055C52.4506 54.6744 53.0211 57.7019 52.2652 61.5887C51.9541 63.1898 51.4279 64.6537 50.6871 65.9799C49.9453 67.307 48.9768 68.5205 47.78 69.6209C46.3536 70.9556 44.7692 71.9068 43.0256 72.4733C41.2821 73.0413 39.0614 73.3241 36.3618 73.3241H30.2434L28.5492 82.0418H21.4063L27.7793 49.2522H41.515Z" fill="white"/>
<path d="M69.3052 73.999C69.1036 73.999 68.9126 73.909 68.7846 73.7534C68.6561 73.5979 68.6041 73.3934 68.6426 73.1954L71.4617 58.6872C71.7299 57.3075 71.6638 56.3172 71.2757 55.8987C71.0381 55.6429 70.3245 55.2139 68.2145 55.2139H63.1072L59.5628 73.4528C59.5011 73.77 59.2233 73.999 58.9002 73.999H51.8136C51.6121 73.999 51.4211 73.909 51.2928 73.7534C51.1646 73.5979 51.1126 73.3932 51.1511 73.1954L57.5241 40.4056C57.5857 40.0886 57.8636 39.8596 58.1866 39.8596H65.2732C65.4748 39.8596 65.6658 39.9496 65.794 40.105C65.9223 40.2607 65.9742 40.4652 65.9358 40.6632L64.3979 48.5772H69.8921C74.0777 48.5772 76.9159 49.3152 78.569 50.8333C80.2541 52.382 80.7798 54.8582 80.1319 58.1941L77.1668 73.4528C77.1051 73.77 76.8275 73.999 76.5042 73.999H69.3052Z" fill="black"/>
<path d="M65.2734 39.1846H58.1868C57.5404 39.1846 56.985 39.6426 56.8617 40.2768L50.4887 73.0666C50.4118 73.4624 50.5157 73.8716 50.7722 74.1827C51.0286 74.4939 51.4106 74.6738 51.8138 74.6738H58.9004C59.5465 74.6738 60.1022 74.2158 60.2255 73.5816L63.6637 55.8887H68.2146C70.3211 55.8887 70.7631 56.3386 70.7809 56.358C70.9087 56.4955 71.0767 57.1321 70.7993 58.5584L67.9802 73.0666C67.9033 73.4624 68.0072 73.8716 68.2637 74.1827C68.5202 74.4939 68.9022 74.6738 69.3053 74.6738H76.5044C77.1505 74.6738 77.7062 74.2158 77.8295 73.5816L80.7944 58.3229C81.4902 54.7411 80.8949 52.0543 79.0259 50.3364C77.2423 48.6984 74.2547 47.9022 69.8923 47.9022H65.2165L66.5985 40.792C66.6752 40.3963 66.5715 39.9868 66.315 39.6759C66.0585 39.3648 65.6765 39.1846 65.2734 39.1846ZM65.2734 40.5344L63.5791 49.252H69.8923C73.8646 49.252 76.6045 49.9454 78.1125 51.3303C79.6205 52.7162 80.0722 54.9616 79.4695 58.0655L76.5044 73.324H69.3053L72.1244 58.816C72.4452 57.1656 72.3273 56.0399 71.7703 55.4397C71.2131 54.8394 70.0277 54.5389 68.2146 54.5389H62.5508L58.9004 73.324H51.8138L58.1868 40.5344H65.2734Z" fill="white"/>
<path d="M91.3445 67.475C94.0588 67.475 96.0851 66.9744 97.3672 65.9877C98.6356 65.0113 99.5116 63.3193 99.971 60.9589C100.399 58.7528 100.236 57.2124 99.4862 56.3812C98.7197 55.5321 97.0626 55.1015 94.5609 55.1015H90.2232L87.8185 67.475H91.3445ZM77.1573 82.7168C76.956 82.7168 76.7648 82.6268 76.6368 82.4711C76.5085 82.3157 76.4563 82.1109 76.4948 81.9132L82.8678 49.1234C82.9297 48.8064 83.2073 48.5774 83.5306 48.5774H97.2657C101.583 48.5774 104.796 49.7495 106.815 52.0615C108.846 54.3855 109.472 57.6343 108.679 61.7175C108.355 63.3809 107.8 64.9258 107.027 66.3089C106.253 67.6936 105.231 68.9749 103.987 70.1177C102.499 71.5107 100.814 72.5209 98.985 73.1152C97.1845 73.7017 94.8723 73.9991 92.1126 73.9991H86.5506L84.963 82.1706C84.9011 82.4878 84.6235 82.7168 84.3002 82.7168H77.1573Z" fill="black"/>
<path d="M90.7806 55.7764H94.5619C97.5812 55.7764 98.63 56.4389 98.9864 56.8337C99.5779 57.4893 99.6894 58.8715 99.3092 60.8306C98.8822 63.0243 98.0906 64.5795 96.9565 65.4528C95.7952 66.3469 93.9072 66.8 91.3455 66.8H88.6384L90.7806 55.7764ZM97.2667 47.9024H83.5313C82.8852 47.9024 82.3297 48.3604 82.2064 48.9946L75.8334 81.7844C75.7565 82.1801 75.8604 82.5894 76.1167 82.9005C76.3731 83.2116 76.7551 83.3916 77.1583 83.3916H84.3011C84.9473 83.3916 85.5029 82.9336 85.6262 82.2994L87.1081 74.674H92.1135C94.9441 74.674 97.327 74.3653 99.1954 73.7567C101.117 73.1325 102.885 72.0737 104.45 70.6103C105.744 69.42 106.809 68.0839 107.617 66.6384C108.425 65.1925 109.005 63.5802 109.342 61.8461C110.178 57.548 109.499 54.1064 107.324 51.6173C105.171 49.1523 101.787 47.9024 97.2667 47.9024ZM87.0008 68.1498H91.3455C94.2253 68.1498 96.3704 67.6074 97.7799 66.5223C99.1898 65.4371 100.14 63.6258 100.634 61.0877C101.107 58.6508 100.892 56.9311 99.9884 55.9293C99.084 54.9275 97.2755 54.4265 94.5619 54.4265H89.6678L87.0008 68.1498ZM97.2667 49.2522C101.399 49.2522 104.413 50.3365 106.308 52.5055C108.203 54.6744 108.773 57.7019 108.017 61.5887C107.706 63.1898 107.18 64.6537 106.439 65.9799C105.697 67.307 104.729 68.5205 103.532 69.6209C102.105 70.9556 100.521 71.9068 98.7774 72.4733C97.0339 73.0413 94.8132 73.3241 92.1135 73.3241H85.9952L84.3011 82.0418H77.1583L83.5313 49.2522H97.2667Z" fill="white"/>
<defs>
<radialGradient id="paint0_radial" cx="0" cy="0" r="1" gradientUnits="userSpaceOnUse" gradientTransform="translate(39.1451 42.5034) scale(81.6777)">
<stop stop-color="#AEB2D5"/>
<stop offset="0.3" stop-color="#AEB2D5"/>
<stop offset="0.75" stop-color="#484C89"/>
<stop offset="1" stop-color="#484C89"/>
</radialGradient>
</defs>
</svg>

<svg xmlns="http://www.w3.org/2000/svg" width="128" height="128" fill="none"><path fill="url(#a)" d="M1.8 63.72c0 18.07 27.848 32.72 62.2 32.72s62.2-14.65 62.2-32.72S98.352 31 64 31 1.8 45.65 1.8 63.72"/><path fill="#777BB3" d="M64 94.01c33.01 0 59.77-13.562 59.77-30.29 0-16.73-26.76-30.291-59.77-30.291S4.23 46.991 4.23 63.719c0 16.73 26.76 30.29 59.77 30.29"/><path fill="#000" d="M35.594 67.475c2.714 0 4.74-.5 6.022-1.487 1.269-.977 2.145-2.669 2.604-5.03.428-2.205.265-3.746-.485-4.577-.766-.849-2.423-1.28-4.925-1.28h-4.338l-2.404 12.374zM21.406 82.717a.674.674 0 0 1-.662-.804l6.373-32.79a.675.675 0 0 1 .662-.546h13.736c4.317 0 7.53 1.172 9.55 3.485 2.03 2.324 2.657 5.573 1.863 9.656-.323 1.663-.88 3.208-1.652 4.59a15.4 15.4 0 0 1-3.04 3.81c-1.488 1.393-3.172 2.403-5.002 2.997-1.8.587-4.113.884-6.872.884H30.8l-1.588 8.172a.675.675 0 0 1-.663.546z"/><path fill="#fff" d="M35.029 55.776h3.781c3.02 0 4.068.663 4.425 1.058.59.655.703 2.037.322 3.997-.427 2.193-1.218 3.748-2.352 4.622-1.162.894-3.05 1.347-5.611 1.347h-2.708zm6.486-7.874H27.779a1.35 1.35 0 0 0-1.325 1.093l-6.373 32.79a1.35 1.35 0 0 0 1.325 1.607h7.143a1.35 1.35 0 0 0 1.325-1.093l1.482-7.625h5.006c2.83 0 5.213-.309 7.082-.917 1.921-.625 3.689-1.683 5.254-3.146a16 16 0 0 0 3.167-3.973c.808-1.446 1.389-3.058 1.725-4.792.836-4.298.157-7.74-2.018-10.228-2.153-2.466-5.537-3.716-10.057-3.716M31.249 68.15h4.345q4.32 0 6.434-1.628t2.855-5.434q.708-3.656-.646-5.159-1.357-1.502-5.427-1.503h-4.894zm10.266-18.898q6.198 0 9.041 3.253t1.71 9.084q-.468 2.401-1.579 4.39-1.112 1.991-2.907 3.642-2.139 2.003-4.754 2.852-2.616.852-6.664.851h-6.119l-1.694 8.718h-7.143l6.373-32.79z"/><path fill="#000" d="M69.305 73.999a.674.674 0 0 1-.662-.804l2.819-14.508c.268-1.38.202-2.37-.186-2.788-.238-.256-.951-.685-3.061-.685h-5.108l-3.544 18.239a.675.675 0 0 1-.663.546h-7.086a.675.675 0 0 1-.663-.804l6.373-32.79a.675.675 0 0 1 .663-.545h7.086a.675.675 0 0 1 .663.803l-1.538 7.914h5.494c4.186 0 7.024.738 8.677 2.256 1.685 1.549 2.21 4.025 1.563 7.361l-2.965 15.259a.675.675 0 0 1-.663.546z"/><path fill="#fff" d="M65.273 39.185h-7.086a1.35 1.35 0 0 0-1.325 1.092l-6.373 32.79a1.35 1.35 0 0 0 1.325 1.607H58.9a1.35 1.35 0 0 0 1.325-1.092l3.439-17.693h4.55c2.107 0 2.55.45 2.567.469.128.138.296.774.018 2.2L67.98 73.067a1.35 1.35 0 0 0 1.325 1.607h7.2a1.35 1.35 0 0 0 1.325-1.092l2.964-15.26c.696-3.58.1-6.268-1.768-7.986-1.784-1.638-4.771-2.434-9.134-2.434h-4.675l1.382-7.11a1.35 1.35 0 0 0-1.326-1.607m0 1.35-1.694 8.717h6.313q5.96 0 8.22 2.078 2.262 2.08 1.358 6.736l-2.966 15.258h-7.199l2.82-14.508q.48-2.475-.355-3.376-.836-.9-3.555-.901H62.55L58.9 73.324h-7.087l6.373-32.79z"/><path fill="#000" d="M91.345 67.475c2.714 0 4.74-.5 6.022-1.487 1.269-.977 2.145-2.669 2.604-5.03.428-2.205.265-3.746-.485-4.577-.766-.849-2.423-1.28-4.925-1.28h-4.338L87.82 67.476zM77.157 82.717a.674.674 0 0 1-.662-.804l6.373-32.79a.675.675 0 0 1 .663-.546h13.735c4.317 0 7.53 1.172 9.549 3.485 2.031 2.324 2.657 5.572 1.864 9.656-.324 1.663-.879 3.208-1.652 4.59a15.4 15.4 0 0 1-3.04 3.81c-1.488 1.393-3.173 2.403-5.002 2.997-1.8.587-4.113.884-6.872.884H86.55l-1.588 8.172a.675.675 0 0 1-.663.546z"/><path fill="#fff" d="M90.78 55.776h3.782c3.02 0 4.068.663 4.424 1.058.592.655.703 2.037.323 3.997-.427 2.193-1.218 3.748-2.352 4.622-1.162.894-3.05 1.347-5.611 1.347h-2.708zm6.487-7.874H83.53a1.35 1.35 0 0 0-1.325 1.093l-6.373 32.79a1.35 1.35 0 0 0 1.325 1.607h7.143a1.35 1.35 0 0 0 1.325-1.093l1.482-7.625h5.005c2.831 0 5.214-.309 7.082-.917 1.922-.625 3.69-1.683 5.255-3.147a16 16 0 0 0 3.167-3.972c.808-1.446 1.388-3.058 1.725-4.792.836-4.298.157-7.74-2.018-10.229-2.153-2.465-5.537-3.715-10.057-3.715M87 68.15h4.344q4.32 0 6.435-1.628t2.854-5.434q.71-3.656-.646-5.159t-5.426-1.503h-4.894zm10.266-18.898q6.198 0 9.041 3.253t1.709 9.084q-.467 2.401-1.578 4.39-1.112 1.991-2.907 3.642-2.14 2.003-4.755 2.852-2.614.852-6.663.851h-6.119l-1.694 8.718h-7.143l6.373-32.79z"/><defs><radialGradient id="a" cx="0" cy="0" r="1" gradientTransform="translate(39.145 42.503)scale(81.6777)" gradientUnits="userSpaceOnUse"><stop stop-color="#AEB2D5"/><stop offset=".3" stop-color="#AEB2D5"/><stop offset=".75" stop-color="#484C89"/><stop offset="1" stop-color="#484C89"/></radialGradient></defs></svg>
